public/assets/img/components/logo-mix.svg

<svg xmlns="http://www.w3.org/2000/svg" width="296" height="76" viewBox="0 0 296 76">
  <g fill="none" fill-rule="evenodd">
    <path fill="#2E2E2E" d="M108.558594,46.7636719 L119.755859,46.7636719 L119.755859,51 L103.285156,51 L103.285156,25.40625 L108.558594,25.40625 L108.558594,46.7636719 Z M133.466797,51 C133.232421,50.5429665 133.062501,49.9746128 132.957031,49.2949219 C131.726556,50.6660225 130.126963,51.3515625 128.158203,51.3515625 C126.294913,51.3515625 124.750983,50.8125054 123.526367,49.734375 C122.301752,48.6562446 121.689453,47.2968832 121.689453,45.65625 C121.689453,43.6406149 122.436516,42.0937554 123.930664,41.015625 C125.424812,39.9374946 127.58397,39.3925782 130.408203,39.3808594 L132.746094,39.3808594 L132.746094,38.2910156 C132.746094,37.412105 132.52051,36.708987 132.069336,36.1816406 C131.618162,35.6542942 130.906255,35.390625 129.933594,35.390625 C129.078121,35.390625 128.407229,35.5957011 127.920898,36.0058594 C127.434568,36.4160177 127.191406,36.9785121 127.191406,37.6933594 L122.111328,37.6933594 C122.111328,36.5917914 122.451168,35.5722703 123.130859,34.6347656 C123.81055,33.6972609 124.771478,32.9619167 126.013672,32.4287109 C127.255866,31.8955051 128.650383,31.6289062 130.197266,31.6289062 C132.541027,31.6289062 134.40136,32.2177675 135.77832,33.3955078 C137.15528,34.5732481 137.84375,36.228505 137.84375,38.3613281 L137.84375,46.6054688 C137.855469,48.4101653 138.107419,49.775386 138.599609,50.7011719 L138.599609,51 L133.466797,51 Z M129.265625,47.4667969 C130.015629,47.4667969 130.707028,47.2998064 131.339844,46.9658203 C131.972659,46.6318343 132.441405,46.1835966 132.746094,45.6210938 L132.746094,42.3515625 L130.847656,42.3515625 C128.304675,42.3515625 126.951173,43.23046 126.787109,44.9882812 L126.769531,45.2871094 C126.769531,45.919925 126.992185,46.4414042 127.4375,46.8515625 C127.882815,47.2617208 128.492184,47.4667969 129.265625,47.4667969 Z M152.433594,36.7441406 C151.742184,36.6503902 151.132815,36.6035156 150.605469,36.6035156 C148.683584,36.6035156 147.423831,37.2538997 146.826172,38.5546875 L146.826172,51 L141.746094,51 L141.746094,31.9804688 L146.544922,31.9804688 L146.685547,34.2480469 C147.705083,32.5019444 149.117178,31.6289062 150.921875,31.6289062 C151.484378,31.6289062 152.011716,31.7050774 152.503906,31.8574219 L152.433594,36.7441406 Z M165.371094,51 C165.136718,50.5429665 164.966797,49.9746128 164.861328,49.2949219 C163.630853,50.6660225 162.03126,51.3515625 160.0625,51.3515625 C158.199209,51.3515625 156.65528,50.8125054 155.430664,49.734375 C154.206049,48.6562446 153.59375,47.2968832 153.59375,45.65625 C153.59375,43.6406149 154.340813,42.0937554 155.834961,41.015625 C157.329109,39.9374946 159.488267,39.3925782 162.3125,39.3808594 L164.650391,39.3808594 L164.650391,38.2910156 C164.650391,37.412105 164.424807,36.708987 163.973633,36.1816406 C163.522459,35.6542942 162.810552,35.390625 161.837891,35.390625 C160.982418,35.390625 160.311526,35.5957011 159.825195,36.0058594 C159.338865,36.4160177 159.095703,36.9785121 159.095703,37.6933594 L154.015625,37.6933594 C154.015625,36.5917914 154.355465,35.5722703 155.035156,34.6347656 C155.714847,33.6972609 156.675775,32.9619167 157.917969,32.4287109 C159.160162,31.8955051 160.55468,31.6289062 162.101562,31.6289062 C164.445324,31.6289062 166.305657,32.2177675 167.682617,33.3955078 C169.059577,34.5732481 169.748047,36.228505 169.748047,38.3613281 L169.748047,46.6054688 C169.759766,48.4101653 170.011716,49.775386 170.503906,50.7011719 L170.503906,51 L165.371094,51 Z M161.169922,47.4667969 C161.919926,47.4667969 162.611325,47.2998064 163.244141,46.9658203 C163.876956,46.6318343 164.345702,46.1835966 164.650391,45.6210938 L164.650391,42.3515625 L162.751953,42.3515625 C160.208972,42.3515625 158.85547,43.23046 158.691406,44.9882812 L158.673828,45.2871094 C158.673828,45.919925 158.896482,46.4414042 159.341797,46.8515625 C159.787112,47.2617208 160.396481,47.4667969 161.169922,47.4667969 Z M180.505859,44.7949219 L184.039062,31.9804688 L189.347656,31.9804688 L182.931641,51 L178.080078,51 L171.664062,31.9804688 L176.972656,31.9804688 L180.505859,44.7949219 Z M200.105469,51.3515625 C197.316392,51.3515625 195.045907,50.4961023 193.293945,48.7851562 C191.541983,47.0742102 190.666016,44.7949361 190.666016,41.9472656 L190.666016,41.4550781 C190.666016,39.5449123 191.035153,37.8369216 191.773438,36.3310547 C192.511722,34.8251878 193.55761,33.6650431 194.911133,32.8505859 C196.264655,32.0361287 197.808585,31.6289062 199.542969,31.6289062 C202.144544,31.6289062 204.192375,32.4492105 205.686523,34.0898438 C207.180672,35.730477 207.927734,38.0566256 207.927734,41.0683594 L207.927734,43.1425781 L195.816406,43.1425781 C195.98047,44.3847718 196.475582,45.3808556 197.301758,46.1308594 C198.127934,46.8808631 199.173822,47.2558594 200.439453,47.2558594 C202.396494,47.2558594 203.925776,46.5468821 205.027344,45.1289062 L207.523438,47.9238281 C206.761715,49.0019585 205.730475,49.8427704 204.429688,50.4462891 C203.1289,51.0498077 201.687508,51.3515625 200.105469,51.3515625 Z M199.525391,35.7421875 C198.517573,35.7421875 197.700198,36.0820279 197.073242,36.7617188 C196.446286,37.4414096 196.044923,38.4140562 195.869141,39.6796875 L202.935547,39.6796875 L202.935547,39.2753906 C202.912109,38.150385 202.607425,37.2802765 202.021484,36.6650391 C201.435544,36.0498016 200.603521,35.7421875 199.525391,35.7421875 Z M216.171875,51 L211.074219,51 L211.074219,24 L216.171875,24 L216.171875,51 Z M233.257812,25.40625 L242.697266,47.9941406 L252.171875,25.40625 L255.054688,25.40625 L255.054688,51 L252.892578,51 L252.892578,39.8554688 L253.068359,28.4296875 L243.541016,51 L241.871094,51 L232.378906,28.5175781 L232.554688,39.7851562 L232.554688,51 L230.392578,51 L230.392578,25.40625 L233.257812,25.40625 Z M263.404297,51 L261.294922,51 L261.294922,31.9804688 L263.404297,31.9804688 L263.404297,51 Z M260.925781,26.4785156 C260.925781,26.0800761 261.054686,25.7431654 261.3125,25.4677734 C261.570314,25.1923814 261.921873,25.0546875 262.367188,25.0546875 C262.812502,25.0546875 263.166991,25.1923814 263.430664,25.4677734 C263.694337,25.7431654 263.826172,26.0800761 263.826172,26.4785156 C263.826172,26.8769551 263.694337,27.2109362 263.430664,27.4804688 C263.166991,27.7500013 262.812502,27.8847656 262.367188,27.8847656 C261.921873,27.8847656 261.570314,27.7500013 261.3125,27.4804688 C261.054686,27.2109362 260.925781,26.8769551 260.925781,26.4785156 Z M275.09375,39.6972656 L280.226562,31.9804688 L282.722656,31.9804688 L276.271484,41.3144531 L283.003906,51 L280.525391,51 L275.111328,42.9492188 L269.697266,51 L267.21875,51 L273.933594,41.3144531 L267.482422,31.9804688 L269.960938,31.9804688 L275.09375,39.6972656 Z"/>
    <path fill="#6DA5E5" d="M65.977216,27.0770766 C65.9923543,26.7199389 66,26.3608623 66,26 C66,12.1928813 54.8071187,1 41,1 C27.1928813,1 16,12.1928813 16,26 C16,26.3620679 16.0076969,26.7223381 16.022936,27.0806559 C24.4078738,23.4173791 33.9540967,24.7158791 41.0041744,29.9961505 C48.0519548,24.7175996 57.5942542,23.4182257 65.977216,27.0770766 L65.977216,27.0770766 Z" style="mix-blend-mode:multiply"/>
    <path fill="#294BA5" d="M31.0221559,48.9294491 C34.078622,50.2613374 37.4530491,51 41,51 C44.5501223,51 47.9274121,50.2600159 50.9860418,48.9258751 C50.821155,45.0298897 49.7395684,41.1150828 47.6548095,37.5041744 C45.9103714,34.482719 43.6304694,31.9631572 41.0041744,29.9961505 C38.3778794,31.9631572 36.0979774,34.482719 34.3535393,37.5041744 C32.2681429,41.116187 31.1865324,45.0322839 31.0221559,48.9294491 L31.0221559,48.9294491 Z" style="mix-blend-mode:multiply"/>
    <path fill="#2B9BDA" d="M50.9860418,48.9258751 C59.512117,45.2068944 65.5620697,36.871067 65.977216,27.0770766 C57.5942542,23.4182257 48.0519548,24.7175996 41.0041744,29.9961505 C43.6304694,31.9631572 45.9103714,34.482719 47.6548095,37.5041744 C49.7395684,41.1150828 50.821155,45.0298897 50.9860418,48.9258751 L50.9860418,48.9258751 Z" style="mix-blend-mode:multiply"/>
    <path fill="#6750AE" d="M31.0221559,48.9294491 C22.4928001,45.2126897 16.4395379,36.8762365 16.022936,27.0806559 C24.4078738,23.4173791 33.9540967,24.7158791 41.0041744,29.9961505 C38.3778794,31.9631572 36.0979774,34.482719 34.3535393,37.5041744 C32.2681429,41.116187 31.1865324,45.0322839 31.0221559,48.9294491 L31.0221559,48.9294491 Z" style="mix-blend-mode:multiply"/>
    <path fill="#6074B8" d="M50.9860418,48.9258751 C51.3271703,56.9861426 47.7446385,64.9658505 41.0041744,70.0072625 C34.2647066,64.9665957 30.6822375,56.9885014 31.0221559,48.9294491 C34.078622,50.2613374 37.4530491,51 41,51 C44.5501223,51 47.9274121,50.2600159 50.9860418,48.9258751 L50.9860418,48.9258751 Z" style="mix-blend-mode:multiply"/>
    <path fill="#66F1F3" d="M41.0041744,70.0072625 C41.7945041,70.5983758 42.6282489,71.1490937 43.5041744,71.6548095 C55.46149,78.5583688 70.7512501,74.46149 77.6548095,62.5041744 C84.5583688,50.5468588 80.46149,35.2570987 68.5041744,28.3535393 C67.6765252,27.8756958 66.8329104,27.4505554 65.977216,27.0770766 C65.5620697,36.871067 59.512117,45.2068944 50.9860418,48.9258751 C51.3271703,56.9861426 47.7446385,64.9658505 41.0041744,70.0072625 L41.0041744,70.0072625 Z" style="mix-blend-mode:multiply"/>
    <path fill="#F27CC2" d="M41.0041744,70.0072625 C40.2138446,70.5983758 39.3800998,71.1490937 38.5041744,71.6548095 C26.5468588,78.5583688 11.2570987,74.46149 4.35353929,62.5041744 C-2.55002009,50.5468588 1.54685879,35.2570987 13.5041744,28.3535393 C14.3291807,27.8772217 15.1700509,27.453271 16.022936,27.0806559 C16.4395379,36.8762365 22.4928001,45.2126897 31.0221559,48.9294491 C30.6822375,56.9885014 34.2647066,64.9665957 41.0041744,70.0072625 L41.0041744,70.0072625 Z" style="mix-blend-mode:multiply"/>
  </g>
</svg>

<svg xmlns="http://www.w3.org/2000/svg" width="296" height="76" viewBox="0 0 296 76"><g fill="none" fill-rule="evenodd"><path fill="#2E2E2E" d="M108.56 46.764h11.196V51h-16.47V25.406h5.273v21.358zM133.466 51c-.235-.457-.404-1.025-.51-1.705-1.23 1.37-2.83 2.057-4.8 2.057-1.862 0-3.406-.54-4.63-1.618-1.225-1.078-1.838-2.437-1.838-4.078 0-2.015.747-3.562 2.24-4.64 1.495-1.08 3.654-1.623 6.478-1.635h2.338v-1.09c0-.878-.225-1.58-.677-2.108-.452-.528-1.164-.79-2.136-.79-.856 0-1.527.204-2.013.614-.485.41-.73.973-.73 1.687h-5.08c0-1.1.34-2.12 1.02-3.058.68-.938 1.64-1.673 2.884-2.206 1.242-.534 2.636-.8 4.183-.8 2.344 0 4.204.588 5.58 1.766 1.378 1.177 2.067 2.833 2.067 4.965v8.245c.01 1.805.263 3.17.756 4.096v.3h-5.133zm-4.2-3.533c.75 0 1.44-.167 2.073-.5.633-.335 1.1-.783 1.406-1.346v-3.268h-1.898c-2.543 0-3.897.878-4.06 2.636l-.018.3c0 .632.222 1.153.668 1.564.445.41 1.054.615 1.828.615zm23.167-10.723c-.692-.094-1.3-.14-1.83-.14-1.92 0-3.18.65-3.778 1.95V51h-5.08V31.98h4.8l.14 2.268c1.02-1.746 2.43-2.62 4.236-2.62.562 0 1.09.077 1.582.23l-.07 4.886zM165.37 51c-.233-.457-.403-1.025-.51-1.705-1.23 1.37-2.83 2.057-4.798 2.057-1.863 0-3.407-.54-4.63-1.618-1.226-1.078-1.838-2.437-1.838-4.078 0-2.015.747-3.562 2.24-4.64 1.495-1.08 3.654-1.623 6.478-1.635h2.338v-1.09c0-.878-.225-1.58-.676-2.108-.452-.528-1.163-.79-2.136-.79-.856 0-1.526.204-2.013.614-.486.41-.73.973-.73 1.687h-5.08c0-1.1.34-2.12 1.02-3.058.68-.938 1.64-1.673 2.883-2.206 1.242-.534 2.637-.8 4.184-.8 2.343 0 4.204.588 5.58 1.766 1.378 1.177 2.066 2.833 2.066 4.965v8.245c.012 1.805.264 3.17.756 4.096v.3h-5.133zm-4.2-3.533c.75 0 1.44-.167 2.074-.5.633-.335 1.102-.783 1.406-1.346v-3.268h-1.898c-2.543 0-3.897.878-4.06 2.636l-.018.3c0 .632.222 1.153.668 1.564.445.41 1.054.615 1.828.615zm19.336-2.672l3.533-12.815h5.308L182.932 51h-4.852l-6.416-19.02h5.31l3.532 12.815zm19.6 6.557c-2.79 0-5.06-.856-6.812-2.567-1.752-1.71-2.628-3.99-2.628-6.838v-.492c0-1.91.37-3.618 1.107-5.124.74-1.505 1.785-2.665 3.138-3.48 1.355-.814 2.9-1.22 4.633-1.22 2.602 0 4.65.82 6.144 2.46 1.494 1.64 2.24 3.967 2.24 6.978v2.075h-12.11c.163 1.242.66 2.238 1.485 2.988.826.75 1.872 1.126 3.137 1.126 1.956 0 3.486-.71 4.587-2.127l2.496 2.794c-.76 1.078-1.793 1.92-3.093 2.522-1.3.604-2.742.906-4.325.906zm-.58-15.61c-1.008 0-1.826.34-2.453 1.02-.627.68-1.028 1.652-1.204 2.918h7.066v-.405c-.024-1.125-.33-1.995-.915-2.61-.584-.615-1.416-.923-2.495-.923zM216.17 51h-5.098V24h5.098v27zm17.086-25.594l9.44 22.588 9.474-22.588h2.883V51h-2.162V39.855l.175-11.425L243.54 51h-1.67l-9.49-22.482.175 11.267V51h-2.162V25.406h2.865zM263.404 51h-2.11V31.98h2.11V51zm-2.478-24.52c0-.4.13-.737.387-1.012.257-.276.61-.413 1.054-.413.446 0 .8.137 1.064.413.264.275.396.612.396 1.01 0 .4-.132.733-.395 1.002-.263.27-.617.405-1.063.405-.445 0-.797-.135-1.055-.405-.257-.27-.386-.603-.386-1zm14.168 13.217l5.133-7.717h2.496l-6.452 9.334L283.005 51h-2.48l-5.413-8.05-5.413 8.05h-2.478l6.714-9.686-6.452-9.334h2.48l5.132 7.717z"/><path fill="#6DA5E5" d="M65.977 27.077C65.992 26.72 66 26.36 66 26 66 12.193 54.807 1 41 1S16 12.193 16 26c0 .362.008.722.023 1.08 8.385-3.663 17.93-2.364 24.98 2.916 7.05-5.278 16.59-6.578 24.974-2.92z" style="mix-blend-mode:multiply"/><path fill="#294BA5" d="M31.022 48.93C34.08 50.26 37.452 51 41 51c3.55 0 6.927-.74 9.986-2.074-.165-3.896-1.246-7.81-3.33-11.422-1.746-3.02-4.026-5.54-6.652-7.508-2.626 1.967-4.906 4.487-6.65 7.508-2.086 3.612-3.167 7.528-3.332 11.425z" style="mix-blend-mode:multiply"/><path fill="#2B9BDA" d="M50.986 48.926c8.526-3.72 14.576-12.055 14.99-21.85-8.382-3.658-17.924-2.358-24.972 2.92 2.626 1.967 4.906 4.487 6.65 7.508 2.086 3.61 3.167 7.526 3.332 11.422z" style="mix-blend-mode:multiply"/><path fill="#6750AE" d="M31.022 48.93c-8.53-3.717-14.582-12.054-15-21.85 8.386-3.663 17.932-2.364 24.982 2.916-2.626 1.967-4.906 4.487-6.65 7.508-2.086 3.612-3.167 7.528-3.332 11.425z" style="mix-blend-mode:multiply"/><path fill="#6074B8" d="M50.986 48.926c.34 8.06-3.24 16.04-9.982 21.08-6.74-5.04-10.322-13.017-9.982-21.077C34.08 50.26 37.452 51 41 51c3.55 0 6.927-.74 9.986-2.074z" style="mix-blend-mode:multiply"/><path fill="#66F1F3" d="M41.004 70.007c.79.59 1.624 1.142 2.5 1.648 11.957 6.903 27.247 2.806 34.15-9.15 6.904-11.958 2.807-27.248-9.15-34.15-.827-.48-1.67-.904-2.527-1.278-.415 9.794-6.465 18.13-14.99 21.85.34 8.06-3.242 16.04-9.983 21.08z" style="mix-blend-mode:multiply"/><path fill="#F27CC2" d="M41.004 70.007c-.79.59-1.624 1.142-2.5 1.648-11.957 6.903-27.247 2.806-34.15-9.15-6.904-11.958-2.807-27.248 9.15-34.15.825-.478 1.666-.902 2.52-1.274.416 9.796 6.47 18.133 14.998 21.85-.34 8.06 3.243 16.037 9.982 21.077z" style="mix-blend-mode:multiply"/></g></svg>
